X:352
T:Rufty Tufty
M:2/2
L:1/8
Q:250
K:G
d4 d2 e2 | f4 e2 f2 | g2 g2 f3 e | d8 |
d4 d2 e2 | f4 e2 f2 | g2 g2 f3 e | d6 ||
ef | g2 f2 e2 d2 | d2 c2 B3 c | d2 d2 c2 B2 |
A4 G2 ef |  g2 f2 e2 d2 |d2 c2 B3 c | d2 d2 c2 B2 |
A4 G4 ||: B3 c d2 d2 | e2 c2 d4 | B3 c d2 d2 |
e2 c2 d2 Bc | d2 d2 c2 B2 | A4 G4 :||
